assets/img/braze_icons/bezier-curve-03.svg

<svg fill="none" height="24" viewBox="0 0 24 24" width="24" xmlns="http://www.w3.org/2000/svg"><path clip-rule="evenodd" d="m11.5681 2c-.2524-.00003-.4982-.00006-.7063.01695-.2286.01868-.4984.06274-.7698.20104-.3763.19175-.68226.49771-.87401.87403-.1383.27143-.18236.54116-.20104.76976-.01701.20815-.01698.45394-.01695.70631v.86381c-.00003.25238-.00006.49818.01695.70634.01868.22859.06274.49832.20104.76975.07961.15623.17889.30033.29473.42917l-4.95024 8.66294-.99437-.0001c-.25239 0-.49818-.0001-.70633.017-.2286.0186-.49833.0627-.76976.201-.37632.1917-.68228.4977-.87403.874-.1383.2714-.18236.5412-.20104.7698-.017007.2081-.016977.4539-.01695.7063v.8638c-.000027.2524-.000057.4982.01695.7063.01868.2286.06274.4984.20104.7698.19175.3763.49771.6823.87403.874.27143.1383.54116.1824.76976.2011.20815.017.45394.0169.70633.0169h.86379c.25239 0 .49818.0001.70634-.0169.22859-.0187.49832-.0628.76975-.2011.37632-.1917.68228-.4977.87403-.874.1383-.2714.18236-.5412.20104-.7698.00363-.0444.00648-.0905.00872-.138h10.01642c.0023.0475.0051.0936.0088.138.0186.2286.0627.4984.201.7698.1917.3763.4977.6823.874.874.2714.1383.5412.1824.7698.2011.2081.017.4539.0169.7063.0169h.8638c.2524 0 .4982.0001.7063-.0169.2286-.0187.4984-.0628.7698-.2011.3763-.1917.6823-.4977.874-.874.1383-.2714.1824-.5412.2011-.7698.017-.2081.0169-.4539.0169-.7063v-.8638c0-.2524.0001-.4982-.0169-.7063-.0187-.2286-.0628-.4984-.2011-.7698-.1917-.3763-.4977-.6823-.874-.874-.2714-.1383-.5412-.1824-.7698-.201-.2081-.0171-.4539-.017-.7063-.017l-.9946.0001-4.9501-8.66279c.1158-.12887.2152-.27303.2948-.42932.1383-.27143.1824-.54116.2011-.76975.017-.20816.0169-.45395.0169-.70634v-.86379c0-.25239.0001-.49818-.0169-.70633-.0187-.2286-.0628-.49833-.2011-.76976-.1917-.37632-.4977-.68228-.874-.87403-.2714-.1383-.5412-.18236-.7698-.20104-.2081-.01701-.4539-.01698-.7063-.01695zm-.1306 5.99993c.0432.00009.0868.00008.1306.00008h.8638c.0437 0 .0872.00001.1304-.00007l4.9503 8.66306c-.1158.1288-.215.2728-.2946.429-.1383.2714-.1824.5412-.201.7698-.0037.0445-.0065.0907-.0088.1384h-10.0164c-.00225-.0477-.0051-.0939-.00874-.1384-.01868-.2286-.06274-.4984-.20104-.7698-.07961-.1562-.17891-.3003-.29475-.4292z" fill="#801ed7" fill-rule="evenodd"/></svg>

<svg width="24" height="24" viewBox="0 0 24 24" fill="none" xmlns="http://www.w3.org/2000/svg">
<path fill-rule="evenodd" clip-rule="evenodd" d="M11.5681 2C11.3157 1.99997 11.0699 1.99994 10.8618 2.01695C10.6332 2.03563 10.3634 2.07969 10.092 2.21799C9.7157 2.40974 9.40974 2.7157 9.21799 3.09202C9.07969 3.36345 9.03563 3.63318 9.01695 3.86178C8.99994 4.06993 8.99997 4.31572 9 4.56809V5.4319C8.99997 5.68428 8.99994 5.93008 9.01695 6.13824C9.03563 6.36683 9.07969 6.63656 9.21799 6.90799C9.2976 7.06422 9.39688 7.20832 9.51272 7.33716L4.56248 16.0001L3.56811 16C3.31572 16 3.06993 15.9999 2.86178 16.017C2.63318 16.0356 2.36345 16.0797 2.09202 16.218C1.7157 16.4097 1.40974 16.7157 1.21799 17.092C1.07969 17.3634 1.03563 17.6332 1.01695 17.8618C0.999943 18.0699 0.999973 18.3157 1 18.5681V19.4319C0.999973 19.6843 0.999943 19.9301 1.01695 20.1382C1.03563 20.3668 1.07969 20.6366 1.21799 20.908C1.40974 21.2843 1.7157 21.5903 2.09202 21.782C2.36345 21.9203 2.63318 21.9644 2.86178 21.9831C3.06993 22.0001 3.31572 22 3.56811 22H4.4319C4.68429 22 4.93008 22.0001 5.13824 21.9831C5.36683 21.9644 5.63656 21.9203 5.90799 21.782C6.28431 21.5903 6.59027 21.2843 6.78202 20.908C6.92032 20.6366 6.96438 20.3668 6.98306 20.1382C6.98669 20.0938 6.98954 20.0477 6.99178 20.0002H17.0082C17.0105 20.0477 17.0133 20.0938 17.017 20.1382C17.0356 20.3668 17.0797 20.6366 17.218 20.908C17.4097 21.2843 17.7157 21.5903 18.092 21.782C18.3634 21.9203 18.6332 21.9644 18.8618 21.9831C19.0699 22.0001 19.3157 22 19.5681 22H20.4319C20.6843 22 20.9301 22.0001 21.1382 21.9831C21.3668 21.9644 21.6366 21.9203 21.908 21.782C22.2843 21.5903 22.5903 21.2843 22.782 20.908C22.9203 20.6366 22.9644 20.3668 22.9831 20.1382C23.0001 19.9301 23 19.6843 23 19.4319V18.5681C23 18.3157 23.0001 18.0699 22.9831 17.8618C22.9644 17.6332 22.9203 17.3634 22.782 17.092C22.5903 16.7157 22.2843 16.4097 21.908 16.218C21.6366 16.0797 21.3668 16.0356 21.1382 16.017C20.9301 15.9999 20.6843 16 20.4319 16L19.4373 16.0001L14.4872 7.33731C14.603 7.20844 14.7024 7.06428 14.782 6.90799C14.9203 6.63656 14.9644 6.36683 14.9831 6.13824C15.0001 5.93008 15 5.68429 15 5.4319V4.56811C15 4.31572 15.0001 4.06993 14.9831 3.86178C14.9644 3.63318 14.9203 3.36345 14.782 3.09202C14.5903 2.7157 14.2843 2.40974 13.908 2.21799C13.6366 2.07969 13.3668 2.03563 13.1382 2.01695C12.9301 1.99994 12.6843 1.99997 12.4319 2L11.5681 2ZM11.4375 7.99993C11.4807 8.00002 11.5243 8.00001 11.5681 8.00001H12.4319C12.4756 8.00001 12.5191 8.00002 12.5623 7.99994L17.5126 16.663C17.3968 16.7918 17.2976 16.9358 17.218 17.092C17.0797 17.3634 17.0356 17.6332 17.017 17.8618C17.0133 17.9063 17.0105 17.9525 17.0082 18.0002H6.9918C6.98955 17.9525 6.9867 17.9063 6.98306 17.8618C6.96438 17.6332 6.92032 17.3634 6.78202 17.092C6.70241 16.9358 6.60311 16.7917 6.48727 16.6628L11.4375 7.99993Z" fill="#801ED7"/>
</svg>
